X:1
T:Duke of York's March
T:Duke of York's March
T:Preston (1780)
C:Preston (1780)
%%score 1 2
L:1/8
M:2/2
K:D
V:1 treble 
V:2 treble 
V:1
 D2 D>D F2 F>F | A>FA>F D2 A2 | d>Ad>A dAFD | A2 A>A A2 z2 | a3 f DF d2 | e2 e>g f3 a | a3 f fdgf | %7
 e2 e>e e2 z2 :| A2 A>A Aefg | A2 A>A Adfa | geee fddd | bagf f2 e2 | d3 f/e/ dAB=c | %13
 =cB B4 c/d/e/f/ | .g.g.f.f .e.e.d.d | e2 e>e e2 z2 | D2 D>D F2 F>F | A>FA>F D2 g2 | faaf gedc | %19
 A2 A>A A2 z2 :| %20
V:2
 D2 D>D F2 F>F | A>FA>F D2 A2 | d>Ad>A dAFD | A2 A>A A2 z2 | DF.A.A DF.A.A | EG.A.A DFAd | %6
 f3 d dBed | A2 A>A A2 z2 :| A2 A>A Acde | A2 A>A AFAd | cBBB dddd | gfed d2 c2 | F8 | %13
 G6 A/B/c/d/ | .e.e.d.d .c.c.B.B | A2 A>A A2 z2 | D2 D>D F2 F>F | A>FA>F D2 B2 | A4 BGFE | %19
 A2 A>A A2 z2 :| %20

